X: 09112
T: TED'S TRIPLE JIG
C: Bob McQuillen 25 Sept 92
B: Bob's Note Book 9 p. 112
R: jig
Z: 2017 John Chambers <jc:trillian.mit.edu>
L: 1/8
M: 6/8
K: D
d2e |\
f2d AFD | G2A B2d | cde ABc | dfd Ade |
f2d AFD | G2A Bed | cde ABc | d3 :|
|: c2d |\
efe ecB | A2B cBA | GAB BAB | c2A E2c |
efe ecB | A2B cAc | efe dcB | A3 :|
%%begintext align
%% Ted Sanella is famous for
%% his triplets, known as "Ted's Triplet #___." YAY!!
%% (from the crowd!!) These are done with three couples (in
%% a mini-contra formation) hence triplet, and they're lots
%% of fun. This tune is for his 333rd triplet (YAY!!) I hope
%% you make it, Ted!
%%endtext

%%sep 1 1 500

%%sep 1 1 500

